X:2989
L:1/4
Q:1/2=140
M:6/4
K:D
 d | A F G A2 f | (e/f/) g e c2 d | A F G A2 f | (e/f/) g f e3 | d e f g2 f | e B e c2 B | 
 A f2 G e2 | A c2 d3 | d e f g2 f | e B e c2 B | A f2 G e2 | A c2 d3 |]

